svg/Filled/archive-close_filled.svg

<svg viewBox="0 0 24 24" xmlns="http://www.w3.org/2000/svg" width="24" height="24"><path fill-rule="evenodd" d="M15.63 2.58c.96 0 1.87.4 2.52 1.1l1.9 2.08c.58.63.9 1.46.9 2.31v8.78c0 2.35-1.9 4.26-4.26 4.26H7.31a4.26 4.26 0 0 1-4.26-4.26V8.07a3.4 3.4 0 0 1 .87-2.29l1.93-2.1c.65-.7 1.56-1.1 2.52-1.1zm0 7.49a.9.9 0 0 0-1.27 0L12 12.43l-2.36-2.36-.07-.06a.9.9 0 0 0-1.27 1.27l.06.06 2.37 2.37-2.37 2.36a.9.9 0 0 0 1.28 1.27L12 14.98l2.36 2.36.07.07a.9.9 0 0 0 1.27-1.27l-.06-.07-2.37-2.36 2.37-2.37a.9.9 0 0 0 0-1.27M8.38 4.36c-.46 0-.9.19-1.2.53l-.57.62-1.57 1.78h13.94L17.41 5.5l-.57-.62a1.6 1.6 0 0 0-1.2-.53z" clip-rule="evenodd"/></svg>

<svg viewBox="0 0 24 24" xmlns="http://www.w3.org/2000/svg" width="24" height="24"><path fill-rule="evenodd" d="M15.63 2.58c.96 0 1.87.4 2.52 1.1l1.9 2.08c.58.63.9 1.46.9 2.31v8.78c0 2.35-1.9 4.26-4.26 4.26H7.31a4.26 4.26 0 0 1-4.26-4.26V8.07a3.4 3.4 0 0 1 .87-2.29l1.93-2.1c.65-.7 1.56-1.1 2.52-1.1zM15.63 10.07A.9 .9 0 0 0 14.36 10.07L12 12.43L9.57 10.01A.9 .9 0 0 0 8.3 11.28L10.73 13.71L8.36 16.07A.9 .9 0 0 0 9.64 17.34L12 14.98L14.43 17.41A.9 .9 0 0 0 15.7 16.14L13.27 13.71L15.64 11.34A.9 .9 0 0 0 15.64 10.07M8.38 4.36C7.92 4.36 7.48 4.55 7.18 4.89L5.04 7.29L18.98 7.29L16.84 4.88A1.6 1.6 0 0 0 15.64 4.35Z" clip-rule="evenodd"/></svg>
